X:1
T:Concerto for 2 violins and strings in D minor
T:Vivace
T:Vivace   from Concerto in D Minor, BWV 1043
T:Johann Sebastian Bach
T:MuseScore &quot;portato&quot; phrasings ©2018 Bernard Greenberg
T:MuseScore &quot;portato&quot; phrasings ©2018 Bernard Greenberg
T:MuseScore &quot;portato&quot; phrasings ©2018 Bernard Greenberg
T:MuseScore &quot;portato&quot; phrasings ©2018 Bernard Greenberg
C:Johann Sebastian Bach
Z:MuseScore "portato" phrasings ©2018 Bernard Greenberg
%%score 1 2
L:1/8
Q:1/4=80
M:8/8
K:F
V:1 treble nm="Violine 1"
V:2 treble nm="Violine" snm="Vl."
V:1
 z8 |!mf! F3 G !tenuto!.A!tenuto!.E ^C2 | z ^F/G/!tenuto!.A!tenuto!.D G/F/G/A/ G/=F/E/D/ | %3
 ^C/D/E/F/ G/A/B/G/ A!tenuto!.C D2- | D2 ^C2 !tenuto!.DA,- A,/ z z/ | %5
!f! A/=B/c/d/ !tenuto!.ea !tenuto!.^ge!tenuto!.Bd | %6
 !tenuto!.^c!tenuto!.A =g3 ^f/e/!tenuto!.f!tenuto!.d | %7
 !tenuto!.=Bd!tenuto!.=fA !tenuto!.^Ge!tenuto!.Ad | c2 T=B2 A/^G/A/B/ c/d/e/f/ | %9
 !tenuto!.g!tenuto!.G g2- g!tenuto!.e!tenuto!.Ag |!f! f/e/d/e/ f/e/f/g/ a4- | %11
 a/g/^f/e/ !tenuto!.f/d/e/f/ g4- | g/f/e/f/ g/a/b/g/ a/b/a/g/ f/e/d/^c/ | %13
 !tenuto!.d !tenuto!.d'2 !tenuto!.^c' !tenuto!.d'3 !tenuto!.f | %14
 !tenuto!.e!tenuto!.a A2- !tenuto!.Ad/e/ ^f/g/a/f/ | %15
 !tenuto!.gd/c/ !tenuto!.d/=B/c/d/ !tenuto!.G!tenuto!.c g2- | %16
 g^f/g/ !tenuto!.ac- !tenuto!.cB/c/ !tenuto!.da- | a g2 f- !tenuto!.fe/d/ ^c/d/=B/c/ | %18
!f! d/e/f/g/ !tenuto!.ad' !tenuto!.^c'a!tenuto!.eg | %19
 !tenuto!.^f!tenuto!.d c'3 =b/a/ !tenuto!.b!tenuto!.g | %20
 !tenuto!.eg!tenuto!.bd !tenuto!.^c!tenuto!.a!tenuto!.dg | f2 Te2 !tenuto!.d c/B/ A/G/F/E/ | %22
"^Sonare le note solo come possibile""^A" !tenuto!.F!tenuto!.a !tenuto!.E!tenuto!.g !tenuto!.D/g/f/e/ d/c/B/A/ | %23
!mf! !tenuto!.B!tenuto!.d' !tenuto!.A!tenuto!.c' !tenuto!.G/c'/b/a/ g/f/e/d/ | %24
 !tenuto!.e/b/((a/g/ a/))e/d/^c/ !tenuto!.d/a/(g/f/ g/)d/c/=B/ | %25
 !tenuto!.^c/g/((f/e/ f/))e/d/f/ e/d/c/=B/ A2- | A/F/D/F/ G/E/^C/E/ !tenuto!.F!tenuto!.D d2- | %27
 d/B/G/B/ c/A/^F/A/ !tenuto!.B!tenuto!.G b2- | b/G/(F/E/ !tenuto!.F)a- a/F/(E/D/ !tenuto!.E)g- | %29
 g/E/(D/^C/ !tenuto!.D)d- d/f/e/d/ e/g/f/e/ | !tenuto!.f/A/=B/^c/ d/e/f/d/ G/d/f-f/d/B/G/ | %31
 !tenuto!.e/G/A/=B/ c/d/e/c/ F/c/_e-e/c/A/F/ | !tenuto!.d.f.g.d .e.g.a.e | %33
 f/g/f/e/ d/c/B/A/ !tenuto!.G/a/g/f/ e/d/c/B/ | %34
 !tenuto!.Af/g/ !tenuto!.aF- F/E/D/C/ !tenuto!.=B,=B- | %35
 Be/f/ !tenuto!.ge- e/d/^c/=B/ !tenuto!.AA- | A/d/f/a/ d'/a/f/d/ A/c/e/a/ c'/a/e/c/ | %37
 a/=b/d/f/ b/f/d/A/ ^G/=B/d/e/ b z |"^B" [A,A] z [=B,^G] z [CA] z2 z | [DA] z [^CA] z [DA] z2 z | %40
 G, (z C) z F (z =B,) z | E z A, z E z z/ D/C/=B,/ | %42
 !tenuto!.C!tenuto!.e !tenuto!.=B,!tenuto!.d !tenuto!.A,/d/c/=B/ A/G/F/E/ | %43
 !tenuto!.F!tenuto!.a !tenuto!.E!tenuto!.g !tenuto!.d/ g/f/e/ d/c/=B/A/ | %44
 !tenuto!.=B/f/((e/d/ e/))B/A/^G/ !tenuto!.A/e/((d/c/ d/))A/G/^F/ | %45
 !tenuto!.^G/d/((c/=B/ c/))B/!tenuto!.A/c/ B/A/G/^F/ E z | %46
 A/=B/c/d/ !tenuto!.ea !tenuto!.^ge!tenuto!.Bd | !tenuto!.^c!tenuto!.A =g2- g^f/e/ !tenuto!.fd | %48
 !tenuto!.=Bd!tenuto!.=fA !tenuto!.^G!tenuto!.e!tenuto!.A!tenuto!.d | c2 T=B2 A2 z/ F/E/D/ | %50
"^C" (!tenuto!.C!tenuto!.A)(!tenuto!.D!tenuto!.=B) !tenuto!.C!tenuto!.A(!tenuto!.=B,!tenuto!.^G) | %51
 (!tenuto!.C!tenuto!.A)(!tenuto!.E!tenuto!.=B) !tenuto!.cA z/ G/F/E/ | %52
 d/f/a/d'/ e/g/a/^c'/ d'/a/f/d/ ^c/e/g/a/ | d/f/a/d'/ e/g/a/^c'/ d'/a/f/d/ D/E/F/D/ | %54
 E/D/E/F/ E/^F/G/E/ F/E/F/G/ F/G/A/F/ | !tenuto!.G !tenuto!.d2 b a/g/^f/e/ !tenuto!.f/d/e/f/ | %56
 g4- !tenuto!.g/f/g/a/ !tenuto!.g/b/a/g/ | a4- !tenuto!.a/g/^f/e/ d/c/B/A/ | %58
 B>c A>G !tenuto!.G/ g/^f/e/ d/c/B/A/ | %59
"^D" ((G/B/!tenuto!.d/))g/ ((A/c/!tenuto!.d/))^f/ g/d/B/G/ ((^F/A/!tenuto!.c/))d/ | %60
 ((G/B/!tenuto!.d/))g/ ((A/c/!tenuto!.d/))^f/ g/d/B/G/ G/_A/G/F/ | %61
 (!tenuto!._E!tenuto!.c)(!tenuto!.F!tenuto!.d) !tenuto!.E!tenuto!.c(!tenuto!.D!tenuto!.=B) | %62
 (!tenuto!._E!tenuto!.c)(!tenuto!.G!tenuto!.d) !tenuto!._ec- c/G/F/G/ | %63
 A/G/A/B/ A/B/c/A/ B/A/B/c/ d/c/d/e/ | ^f/e/f/g/ f/g/a/f/ !tenuto!.g/c/B/A/ B/d/g- | %65
 g!tenuto!.A g2- g!tenuto!.A!tenuto!.Df- | f!tenuto!.F _e2- eA!tenuto!.B!tenuto!.d | %67
 ((E/F/!tenuto!.G/))B/ !tenuto!.^c/b/a/g/ ((F/G/!tenuto!.A/))c/ !tenuto!.d/a/g/f/ | %68
 ((G/A/!tenuto!.^c/))d/ !tenuto!.e/g/f/e/ ((A/c/!tenuto!.d/))e/ !tenuto!.fd- | %69
"^E" dg/a/ !tenuto!.bG- G/F/E/D/ !tenuto!.Cc- | %70
 !tenuto!.cf/g/ !tenuto!.af- f/_e/d/c/ !tenuto!.BB- | %71
 B/c/B/A/ G/F/E/D/ !tenuto!.C/d/c/B/ A/G/^F/E/ | (!tenuto!.D.d)._e.B !tenuto!..c.e.f!tenuto!..c | %73
 !tenuto!.d/f/g/a/ b/c'/d'/b/ e/b/d'- d'/b/g/e/ | %74
 !tenuto!.^c'/e/f/g/ a/b/=c'/a/ d/a/c'- c'/a/^f/d/ | %75
 !tenuto!.b!tenuto!.g!tenuto!.dd'- d'.a/f/ d2- | d!tenuto!.B!tenuto!.Gg- ge/^c/ A/G/F/E/ | %77
"^F" !tenuto!.F!tenuto!.a !tenuto!.E!tenuto!.g !tenuto!.D/g/f/e/ d/c/B/A/ | %78
 !tenuto!.B!tenuto!.d' !tenuto!.A!tenuto!.c' !tenuto!.G/c'/b/a/ g/f/e/d/ | %79
 !tenuto!.e/b/a/g/ !tenuto!.a/e/d/^c/ !tenuto!.d/a/g/f/ !tenuto!.g/d/c/=B/ | %80
 !tenuto!.^c/g/f/e/ ((f/e/!tenuto!.d/))f/ e/d/c/=B/ A2- | %81
 A/F/D/F/ G/E/^C/E/ !tenuto!.F!tenuto!.D d2- | d/B/G/B/ c/A/^F/A/ !tenuto!.B!tenuto!.G b2- | %83
 b/G/(F/E/ !tenuto!.F)a- a/F/(E/D/ !tenuto!.E)g- | g/E/(D/^C/ !tenuto!.D)d- d/f/e/d/ e/g/f/e/ | %85
 f/g/f/e/ !tenuto!.d d' !tenuto!.^c'a!tenuto!.eg | %86
 !tenuto!.^f!tenuto!.d =c'2- c'=b/a/ !tenuto!.bg | %87
 !tenuto!.eg!tenuto!._bd !tenuto!.^c!tenuto!.a[Q:1/4=75]!tenuto!.dg | %88
[Q:1/4=70] f2[Q:1/4=50] Te2 !fermata!d4[Q:1/4=60][Q:1/4=35] |] %89
V:2
 z8 |!f! D/E/F/G/ !tenuto!.Ad !tenuto!.^cA!tenuto!.EG | !tenuto!.^F!tenuto!.D c3 =B/A/!tenuto!.BG | %3
 !tenuto!.EG!tenuto!._BD !tenuto!.^C!tenuto!.A!tenuto!.DG | F2 TE2 D/^C/D/E/ ^F/^G/A/=B/ | %5
 c/=B/A/B/ c/B/c/d/ e4- | e/d/^c/=B/ !tenuto!.c/A/B/c/ d4- | %7
 d/c/=B/c/ d/e/f/d/ e/f/e/d/ c/B/A/^G/ | !tenuto!.A a2 ^g !tenuto!.aA/^G/ A/=B/c/A/ | %9
 =B/A/B/c/ B/^c/d/B/ c/B/c/d/ c/d/e/c/ | !tenuto!.da z f e/d/^c/=B/ !tenuto!.c/A/B/c/ | %11
 d4- d/c/d/e/ !tenuto!.d/f/e/d/ | e4- e/d/^c/=B/ A/G/F/E/ | %13
 !tenuto!.D/c/B/A/ G/F/E/G/ !tenuto!.F!tenuto!.D A2- | %14
 A/=B/^c/d/ !tenuto!.eg !tenuto!.^fd!tenuto!.A=c | %15
 !tenuto!.=B!tenuto!.G f3 e/d/!tenuto!.e!tenuto!.c | %16
 !tenuto!.Ac!tenuto!._eG !tenuto!.^F!tenuto!.d!tenuto!.Gc | B2 A2 G2 z !tenuto!.E | %18
 A4- A/^G/A/=B/ ^c/d/e/c/ | !tenuto!.d/B/A/G/ !tenuto!.A/^F/G/A/ !tenuto!.D!tenuto!.G d2- | %20
 d^c/d/ e/f/g- !tenuto!.g/e/f/g/ !tenuto!.ae- | e d2 ^c d2 z2 | [Dd] z [E^c] z [Fd] z2 z | %23
 [Gd] z [^Fd] z [Gd] z2 z | c z F z B z E z | A z D z A z z/ G/F/E/ | %26
"^Sonare le note solo come possibile"!mf! !tenuto!.F!tenuto!.a !tenuto!.E!tenuto!.g !tenuto!.D/g/f/e/ d/c/B/A/ | %27
 !tenuto!.B!tenuto!.d' !tenuto!.A!tenuto!.c' !tenuto!.G/c'/b/a/ g/f/e/d/ | %28
 !tenuto!.e/b/((a/g/ a/))e/d/^c/ !tenuto!.d/a/((g/f/ g/))d/c/=B/ | %29
 !tenuto!.^c/g/((f/e/ f/))e/!tenuto!.d/f/ e/d/c/=B/ A2- | %30
 !tenuto!.Ad/e/!tenuto!.f!tenuto!.D-D/C/=B,/A,/B,G- | %31
 !tenuto!.Gc/d/!tenuto!.e!tenuto!.C- C/B,/A,/G,/ !tenuto!.A,F- | %32
 F/G/F/E/ D/C/=B,/A,/ !tenuto!.G,/A/G/F/ E/D/^C/B,/ | !tenuto!.A, .A.B.F .G.B.c.G | %34
 A/c/d/e/ f/g/a/f/ =B/f/a-a/f/d/B/ | !tenuto!.^g/=B/c/d/ e/f/=g/e/ A/e/g-g/e/^c/A/ | %36
 !tenuto!.f!tenuto!.d!tenuto!.Aa- ae/c/ A2- | !tenuto!.A!tenuto!.F!tenuto!.Dd- d=B/^G/ E/D/C/=B,/ | %38
"^Sonare le note solo come possibile" !tenuto!.C!tenuto!.e !tenuto!.=B,!tenuto!.d !tenuto!.A,/d/c/=B/ A/G/F/E/ | %39
 !tenuto!.F!tenuto!.a !tenuto!.E!tenuto!.g !tenuto!.D/g/f/e/ d/c/=B/A/ | %40
 !tenuto!.=B/f/((e/d/ !tenuto!.e/))B/A/^G/ !tenuto!.A/e/((d/c/ !tenuto!.d/))A/G/^F/ | %41
 !tenuto!.^G/d/((c/=B/ c/))B/!tenuto!.A/c/ B/A/G/^F/ E2- | %42
 E/C/A,/C/ D/=B,/^G,/B,/ !tenuto!.C!tenuto!.A, A2- | A/F/D/F/ G/E/^C/E/ !tenuto!.F!tenuto!.D (f2- | %44
 f/.D/)C/=B,/ !tenuto!.C(e- e/).C/B,/A,/ !tenuto!.B,d- | %45
 (d/.=B,/)A,/^G,/ !tenuto!.A,A- A/c/=B/A/ B/d/c/B/ | c/=B/A/B/ c/B/c/d/ e4- | %47
 e/d/^c/=B/ !tenuto!.c/A/B/c/ d4- | d/c/=B/c/ d/e/f/d/ e/f/e/d/ c/B/A/^G/ | %49
 !tenuto!.A !tenuto!.a2 ^g a"^Sonare le note solo \ncome possibile"!>(! =g/f/ e/d/c/=B/!>)! | %50
!mf! ((A/c/!f!e/))a/ ((=B/d/e/))^g/ a/e/c/A/ ((^G/B/d/))e/ | %51
 ((A/c/e/))a/ ((=B/d/e/))^g/ a/e/c/A/ A,/ _B/A/G/ | %52
 !tenuto!.F!tenuto!.d!tenuto!.G!tenuto!.e !tenuto!.F!tenuto!.d!tenuto!.E!tenuto!.^c | %53
 !tenuto!.F!tenuto!.d!tenuto!.A!tenuto!.e !tenuto!.fd z!<(! d-!<)! | %54
 d!tenuto!.G c2- c!tenuto!.A!tenuto!.D!tenuto!.c | B/A/G/A/ B/A/B/c/ d4- | %56
 d/c/=B/A/ !tenuto!.B/G/A/B/ c4- | c/B/A/B/ c/d/_e/c/ d/e/d/c/ B/A/G/^F/ | %58
 !tenuto!.G g2 ^f g2 z/!mf! _E/D/C/ | %59
"^Sonare le note solo \ncome possibile" !tenuto!.B,!tenuto!.G!tenuto!.C!tenuto!.A !tenuto!.B,!tenuto!.G!tenuto!.A,!tenuto!.^F | %60
 !tenuto!.B,!tenuto!.G!tenuto!.D!tenuto!.A !tenuto!.BG z/ f/_e/d/ | %61
 ((c/_e/!tenuto!.g/))c'/ ((d/f/!tenuto!.g/))=b/ c'/g/e/c/ ((=B/d/!tenuto!.f/))g/ | %62
 ((c/_e/!tenuto!.g/))c'/ ((d/f/!tenuto!.g/))=b/ c'/g/e/c/ !tenuto!.Ce- | %63
 e!tenuto!.F _e2- e!tenuto!.F!tenuto!.B,d- | d!tenuto!.D c2- c!tenuto!.D G,/B,/!tenuto!.A,/=B,/ | %65
 ^C/=B,/C/D/ C/D/E/C/ D/C/D/E/ F/E/F/G/ | A/G/A/B/ A/B/c/A/ !tenuto!.B/_E/D/C/ D/F/B- | %67
 B!tenuto!.B!tenuto!.Ge- e!tenuto!.A!tenuto!.Fd- | d!tenuto!.G!tenuto!.E!tenuto!.^c d2- d/=c/B/A/ | %69
 !tenuto!.B/D/E/^F/ G/A/B/G/ C/G/B- B/G/E/C/ | !tenuto!.A/C/D/E/ F/G/A/F/ B,/F/_A- A/F/D/B,/ | %71
 !tenuto!.G.B.c.G .A.c.d.A | ((B/c/B/))A/ G/F/_E/D/ !tenuto!.C/d/c/B/ A/G/F/E/ | %73
 !tenuto!.DB/c/dB- B/A/G/F/ !tenuto!.Ee- | eA/B/cA- A/G/^F/E/ D2- | %75
 D/((G/B/d/)) g/d/B/G/ ((D/F/A/))d/ f/d/A/F/ | ((D/E/G/))B/ e/B/G/D/ ((^C/E/!tenuto!.G/))A/ e z | %77
 [Dd] z [E^c] z [Fd] z2 z | [Gd] z [^Fd] z [Gd] z2 z | c z F z B z E z | %80
 A z D z !tenuto!.A z z/ G/F/E/ | %81
 !tenuto!.F!tenuto!.a !tenuto!.E!tenuto!.g !tenuto!.D/g/f/e/ d/c/B/A/ | %82
 !tenuto!.B!tenuto!.d' !tenuto!.A!tenuto!.c' !tenuto!.G/c'/b/a/ g/f/e/d/ | %83
 !tenuto!.e/b/((a/g/ a/))e/d/^c/ !tenuto!.d/a/((g/f/ g/))d/c/=B/ | %84
 !tenuto!.^c/g/((f/e/ f/))e/!tenuto!.d/f/ e/d/c/=B/ A z | %85
 z !tenuto!.A!tenuto!.df !tenuto!.e!tenuto!.^c A2- | A/G/^F/E/ !tenuto!.F/D/E/F/ G4- | %87
 G/F/E/F/ G/A/B/G/ A/B/A/G/ F/E/D/^C/ | !tenuto!.D d2 ^c !fermata!d4 |] %89

